X:1
T:1 Stabat mater dolorosa
T:à due
M:C
L:1/8
%%staves s | a | {1 2 3 4}
Q:"Grave" % 1/4=60
K:Fm
V:s name=Sopran dyn=up
z8|z8|z8|
V:a name=Alt dyn=up
z8|z8|z8|
V:1 name="Streicher\nBasso continuo"
%%MIDI program 40
z4g4-|g2f2b4-|b2a2d'4-|
V:2
%%MIDI program 40
!dolce!f6=e2|a6g2|c'6b2|
V:3
%%MIDI program 42
z8|C4E4-|E2A2F2B2|
V:4
% %MIDI program 43
%%MIDI program 42
F,G,A,F, C,=D,=E,C,|F,G,A,F, _E,F,G,E,|A,B,CA, B,CDB,|
V:s		% M4
z8|z8|z8|z8|
V:a
z8|z8|z8|z8|
V:1
d'2c'b=a2c'2-|c'2b2Gwbwgw=e|C([GB][FA][=EG]) Awc'wawf|C([Ac][GB][FA]) [=EG][=eg][fa][FA]|
V:2
(=e4_e2)dc|d2f2=e2z2|x4F2z2|x4x!forte!x3|
V:3
G4C4|D4C4|C8|C4-iCx3|
V:4
CB,A,G, F,_G,F,E,|D,C,D,B,,C,2x2|zC,C,C,C,2z2|zC,C,C, [C,C][B,D][A,C][B,D]|
V:s		% M8
z8|z8|z8|
V:a
z8|z8|z8|
V:1
(A2G2)zw[fa] zw[fa]|z(dc=E) Fw[fa] zw[fa]|z(dc=E) (F/f/)(=e/g/) (f/c/)(d/B/)|
V:2
FF=EE!dolce!x4|z(BAG) !pdolce!x4|z(BAG) !forte!cBAG|
V:3
C4x4|x8|x8|
V:4
CCC,C, [D,D]z [A,,A,]z|[B,,B,]z [C,C]z [D,D]z [A,,A,]z|[B,,B,]z [C,C]z A,G,A,B,|
% (6)
V:s		% M11
z8|z4G4-|G2F2B4-|B2A2d4-|
w:Sta -bat ma -ter do-
V:a
z8|F6=E2|A6G2|c6B2|
w:Sta-bat ma-ter do-lo-
V:1
{B}A2TG2FCA,2|z4G4-|G2F2B4-|B2A2d4-|
V:2
F2=E2x4|!dolces!F6=E2|A6G2|c6B2|
V:3
x8|x8|C4E4-|E2F4G2-|
V:4
CCC,C,F,2z2|F,G,A,F, C,=D,=E,C,|F,G,A,F, _E,F,G,E,|A,B,CA, B,CDB,|
V:s		% M15
d2(cB)(=A4|B2d4cB|T_A4)G2z2|f2e2(dc)B2-|
w:-lo -ri -----sa jux-ta cru -cem
V:a
(=E4_E2DC|D3F=E4|TF4)=E2z2|z8|
w:ro -------sa
V:1
(d2cB=A4)|d2df[G=e]4|[Acf][CFA][=B,FA][B,FA][C=EG]2z2|f2e2dcB2-|
V:2
=e4_e2dc|[FB]2d2-d2cB|x8|z2c2-c=ABF|
V:3
G4C4|x8|x8|x8|
V:4
CB,A,G, F,_G,F,E,|D,C,D,B,, C,B,,A,,G,,|F,,F,=B,,B,, C,_D,C,_B,,|=A,,G,,A,,F,, B,,C,D,B,,|
V:s		% M19
B (_GF) e {f}(3e/d/c/{c}d3|z8|z8|c3d{c}B3c|
w:_ la -cri-mo --sa, dum pen-de-bat
V:a
z8|E2d2(cB)A2-|A (FE) d (3d/c/B/{B}c3|A3B{A}G3A|
w:jux-ta cru -cem_ la -cri-mo --sa, dum pen-de-bat
V:1
BGFe- ed/c/ dd|E2d2cBA2-|AFEd- dc/B/ cc|[ac']3[bd']{[ac']}[gb]3[ac']|
V:2
_GB2=AF4|z2B2-B=GAE|FA2GE2z2|!dolce!x8|
V:3
x8|x8|x8|x8|
V:4
E,,E,D,C, B,,B,B,A,|G,F,G,E, A,B,CA,|D,DCB, A,A,A,G,|F,F,F,,2zG,=E,2|
% (7)
V:s		% M23
{B}TA3AG2z2|!dolce!c6c2|(c4=B2)c2|(c2=B3/) c/c2z2|
w:fi-li-us, dum pen-de -bat fi -li-us.
V:a
{G}TF3F=E2z2|z4!dolce!=D4-|D2=D2D2E2|=D3DC2z2|
w:fi-li-us dum_ pen-de-bar fi-li-us.
V:1
{[gb]}T[fa]4[=eg]2z2|z4=d4-|d4[=B=d]2[c-e]2|c2=B2zw[ce] zw[ce]|
V:2
x8|c8-|c4x4|x4!dolce!x4|
V:3
x8|[I:staff 3]!sottov!E4F4|^F4G4-|[G=d]4[I:staff 4]x4|
V:4
zF,=B,,B,,C,2z2|C,=D,_E,C, F,G,A,G,|^F,F,F,F, G,G,E,=F,|G,G,G,,G,, C,z E,z|
V:s		% M27
z8|z4c4-|c2=B2e4-|e2=d2g4-|
w:Sta -bat ma -ter do-
V:a
z8|z8|=D6C2|F6E2|
w:Sta-bat ma-ter
V:1
z(AG=B,) Cw[ce] zw[ce]|z(AG=B,)C2z2|=d6c2|f6e2|
V:2
z(FE=D)x4|z(FE=D)c4-|c2=B2[Ge-]4|e2=d2g4-|
V:3
x8|x8|z4x4|B,6C2-|
V:4
F,z G,z A,z E,z|F,z G,z C,=D,E,C,|G,,=A,,=B,,G,, C,=D,E,C,|_B,,C,=D,B,, E,F,G,E,|
V:s		% M31
g2f2(=B4|c4)=B2z2|z4f2e2|_d2=d2e2_d2|(c4d2c2|
w:-lo-ro -sa jux-ta cru-cem la-cri-mo --
V:a
A6(GF)|E4=D2z2|c2B2A2=A2|B2_A2_G2=G2|A2G2(F4|
w:do-lo -ro-sa jux-ta cru-cem jux-ta cru-cem la-cri-mo-
V:1
a6gf|[Ece][Ece][^Fce][Fce][G=B=d]2z2|(c'2_b2[fa]2[e=a]2)|([_db]2[=d_a]2[e_g]2[_d=g]2)|(a2g2f4)|
V:2
g2f2=B4|x8|!dolce!z4x4|x8|c4(d2c2)|
V:3
C2=D6|x8|C6F2-|F4E4-|E4D4-|
V:4
F,G,A,F, G,F,E,=D,|C,C,^F,,F,, G,,G,G,=F,|=E,4F,4|B,,4E,4|A,,4D,4|
% (8)
V:s		% M36
B4c2B2|{B}TA4)G2z2|z(BA) GTA2TA2|z(cB) A (G=ef) B|
w:----sa, dum_ pen-de-bat, dum_ pen-de --bat
V:a
G2F2=E4)|TF4=E2z2|z(GF) =ETF2TF2|z(AG) F (=EGA) F|
w:----sa, dum_ pen-de-bat, dum_ pen-de --bat
V:1
(g2f2=e4)|[Af][FA][FA][FA] Gwbwgw=e|C([GB][FA][=EG]) Awc'wawf|C([Ac][GB][FA]) [=EG][_d=eg][cfa][FB]|
V:2
B4(c2B2)|x4!dolce!=E2z2|x4F2z2|x4!forte!x4|
V:3
D4C4-|iCx3C4|C8|C4-Cx3|
V:4
G,,4C,4-|[C,C][=B,,=B,][B,,B,][B,,B,]C,4|zC,C,C,C,2z2|zC,C,C, C,B,,A,,B,,|
V:s		% M40
{B}(A2TG3/) F/F2z2|z(dc) =E F/E/ Fz2|z8|z4!sottov!G4-|
w:fi -li-us, do -lo-ro -sa, dum
V:a
(F2=E3/) F/F2z2|z8|z(dc) =E F/E/ Fz2|!sottov!F6F2|
w:fi -li-us, la -cri-mo -sa, dum pen-
V:1
[CFA][CFA][C=EG][CEG] zw[fa] zw[fa]|z(dc=E) F[fa] z[fa]|z(dc=E){E}F2z2|z4G4-|
V:2
x4!dolcea!x4|z(BAG)x4|z(BAG)F2x2|F8-|
V:3
x8|x8|x8|[I:staff 3]!sottov!A,4B,4|
V:4
C,C,C,C, [D,D]z [A,,A,]z|[B,,B,]z [C,C]z [D,D]z [A,,A,]z|[B,,B,]z [C,C]z [D,D]2z2|F,G,A,F, B,,C,D,C,|
V:s		% M44
G2G2G2A2|G3GF2z2|z8|Hz8|]
w:_ pen-de-bat fi-li-us.
V:a
(F4=E2)F2|(F2=E) EF2z2|z8|Hz8|]
w:de -bat fi -li-us.
V:1
G4-[=EG]2A2|G4F[fa] zw[fa]|z(dc=E) Fw[fa] zw[fa]|z(dc=E){E}F2Hz2|]
V:2
F4x2F2-|F2=E2!dolce!x4|z(BAG)x4|z(BAG)F2x2|]
V:3
[I:staff 4]x8|x8|x8|x8|]
V:4
=B,,B,,B,,B,, C,_B,,A,,B,,|C,4F,z [A,,A,]z|[B,,B,]z [C,C]z [D,D]z [A,,A,]z|[B,,B,]z [C,C]z[F,,F,]2Hz2|]

